packages/kaspersky-hexa-ui-icons/src/iconsSVGs/16/StatusHighSolid.svg

<svg width="16" height="16" viewBox="0 0 16 16" fill="none" xmlns="http://www.w3.org/2000/svg">
<path fill-rule="evenodd" clip-rule="evenodd" d="M1.41416 6.58573C0.633108 7.36678 0.633106 8.63311 1.41415 9.41416L6.58573 14.5857C7.36678 15.3668 8.63311 15.3668 9.41416 14.5857L14.5857 9.41416C15.3668 8.63311 15.3668 7.36678 14.5857 6.58573L9.41416 1.41416C8.63311 0.633108 7.36678 0.633106 6.58573 1.41415L1.41416 6.58573ZM7.99994 4.4433C8.41416 4.4433 8.74994 4.77909 8.74994 5.1933V8.10334C8.74994 8.51755 8.41416 8.85334 7.99994 8.85334C7.58573 8.85334 7.24994 8.51755 7.24994 8.10334V5.1933C7.24994 4.77909 7.58573 4.4433 7.99994 4.4433ZM8.84984 10.7181C8.84984 11.1875 8.46929 11.5681 7.99985 11.5681C7.5304 11.5681 7.14985 11.1875 7.14985 10.7181C7.14985 10.2487 7.5304 9.86811 7.99985 9.86811C8.46929 9.86811 8.84984 10.2487 8.84984 10.7181Z" fill="black"/>
</svg>

<svg xmlns="http://www.w3.org/2000/svg" width="16" height="16" fill="none" viewBox="0 0 16 16"><path fill="#000" fill-rule="evenodd" d="M1.4142 6.5857c-.781.781-.781 2.0474 0 2.8285l5.1715 5.1715c.781.7811 2.0474.7811 2.8285 0l5.1715-5.1715c.7811-.781.7811-2.0474 0-2.8285L9.4142 1.4142c-.781-.781-2.0474-.781-2.8285 0zm6.5857-2.1424a.75.75 0 0 1 .75.75v2.91a.75.75 0 1 1-1.5 0v-2.91a.75.75 0 0 1 .75-.75m.85 6.2748a.85.85 0 1 1-1.7001 0 .85.85 0 0 1 1.7 0"/></svg>
